X:1
T:Title
%%score { 1 | ( 2 3 ) }
L:1/8
Q:1/4=92
M:6/8
K:F
V:1 treble nm="Grand Piano"
V:2 bass 
V:3 bass 
V:1
 A>GF B2 B | A3 F3 | G>FE [EA]2 [EG] | F6 | A>GF B2 B | A3 F3 | [FG]>[FG][FG] [FA]2 [F=B] | [Ec]6 | %8
w: I.~H.~Meredith * * * *||||||||
 [GB]>[GB][GB] [FA]2 [EG] | [FA]3 [Ac]3 | [GB]>[GB][GB] [FA]2 [FA] | [EG]6 | A>AA c3 | %13
w: |||||
[M:15/16] F>FF[^CA]3/2- [CA]3 |[M:3/4] [B,DG][CDA] [DGB] [CFA]2 [B,EG] | [A,F]6 | %16
w: |||
 [Ec]3 [EG] A[CGB] | [CFA]3 [CAc]3 | [CGB]2 [CGB] A2 A | G6 | A>A A c3 | F>F F [^CA]3 | %22
w: ||||||
 [B,DG][CDA] [DGB] [CFA]2 [B,EG] | [A,F]6 |] %24
w: ||
V:2
 [F,CF]>[F,B,C][F,A,C] [F,DF]2 [F,DF] | [F,CF]3 [F,A,C]3 | [C,B,C]>[C,A,C][C,G,B,] [C,C]2 [C,A,] | %3
 [F,A,]6 | [F,CF]>[F,B,C][F,A,C] [F,DF]2 [F,DF] | [F,CF]3 [F,A,C]3 | %6
 [D,=B,]>[D,B,][D,B,] [G,C]2 [G,D] | [C,C]6 | [C,C]>[C,C][C,C] [C,C]2 [C,C] | [F,C]3 [F,C]3 | %10
 [E,C]>[E,C][E,C] [F,C]2 [F,C] | [C,C]6 | [F,CF]>[F,CF][F,CF] [F,A,F]3 | %13
[M:15/16] [D,A,]>[D,A,][D,F,D][A,,E,]3/2- [A,,E,]3 |[M:3/4] B,,B,, B,, C,2 C, | F,6 | [C,G,]4 FC, | %17
 F,3 F,3 | E,2 E,[K:treble] [F,CF]2 [A,CF] | [CE]6 | [F,CF]>[F,CF][K:bass] [F,CF] [F,A,F]3 | %21
 [D,A,]>[D,A,] [D,F,D] [A,,E,]3 | B,,B,, B,, C,2 C, | F,6 |] %24
V:3
 x6 | x6 | x6 | x6 | x6 | x6 | x6 | x6 | x6 | x6 | x6 | x6 | x6 |[M:15/16] x15/2 |[M:3/4] x6 | x6 | %16
 z2 z .[C,C]3 | x6 | x3[K:treble] x3 | x6 | x2[K:bass] x4 | x6 | x6 | x6 |] %24

